svgs/sharp-solid/house-flag.svg

<svg xmlns="http://www.w3.org/2000/svg" viewBox="0 0 640 512"><!--! Font Awesome Pro 6.6.0 by @fontawesome - https://fontawesome.com License - https://fontawesome.com/license (Commercial License) Copyright 2024 Fonticons, Inc. --><path d="M512 0l0 32 128 0 0 160-128 0 0 320-64 0 0-320 0-160 0-32 64 0zM416 165.2L416 512l-96 0 0-160-128 0 0 160L64.1 512l0-224.4L0 287.6 0 240 256.4 32 416 165.2z"/></svg>

<svg xmlns="http://www.w3.org/2000/svg" viewBox="0 0 640 512"><!--! Font Awesome Pro 6.5.2 by @fontawesome - https://fontawesome.com License - https://fontawesome.com/license (Commercial License) Copyright 2024 Fonticons, Inc. --><path d="M512 0V32H640V192H512V512H448V192 32 0h64zM416 165.2V512H320V352H192V512H64.1V287.6H0V240L256.4 32 416 165.2z"/></svg>
